img/vk.svg

<svg width="21" height="21" viewBox="0 0 21 21" fill="none" xmlns="http://www.w3.org/2000/svg">
<path d="M10.5 0C8.4233 0 6.39323 0.615814 4.66652 1.76957C2.9398 2.92332 1.59399 4.5632 0.799269 6.48182C0.00454958 8.40045 -0.203386 10.5116 0.201759 12.5484C0.606904 14.5852 1.60693 16.4562 3.07538 17.9246C4.54383 19.3931 6.41475 20.3931 8.45156 20.7982C10.4884 21.2034 12.5996 20.9954 14.5182 20.2007C16.4368 19.406 18.0767 18.0602 19.2304 16.3335C20.3842 14.6068 21 12.5767 21 10.5C21 9.12112 20.7284 7.75574 20.2007 6.48182C19.6731 5.2079 18.8996 4.05039 17.9246 3.07538C16.9496 2.10036 15.7921 1.32694 14.5182 0.799265C13.2443 0.27159 11.8789 0 10.5 0ZM17.1075 7.60991C17.0185 7.82011 16.9442 8.03792 16.837 8.23816C16.4857 8.9033 16.0079 9.48472 15.5594 10.0855C15.3281 10.3946 15.0986 10.7055 14.8925 11.0316C14.735 11.2805 14.7754 11.52 14.9675 11.743C15.0606 11.8508 15.1619 11.9515 15.2602 12.0528C15.6396 12.4339 16.0354 12.8005 16.3961 13.1986C16.7076 13.5429 17.032 13.8925 17.1052 14.3849V14.4124C17.0162 14.6811 16.8856 14.79 16.5946 14.7994C15.9593 14.8199 15.3223 14.8123 14.6882 14.8492C14.1372 14.882 13.6998 14.6735 13.3292 14.2965C13.0277 13.9926 12.7513 13.6641 12.4562 13.3538C12.3479 13.2409 12.2278 13.14 12.0979 13.0528C11.8771 12.9041 11.719 12.9316 11.5381 13.1284C11.3338 13.3509 11.2787 13.6307 11.2454 13.9159C11.2284 14.0576 11.2296 14.201 11.2202 14.3433C11.202 14.6162 11.0668 14.7789 10.7957 14.7982C10.4795 14.8205 10.1604 14.8211 9.84306 14.8129C9.5811 14.8102 9.31968 14.7887 9.06081 14.7485C8.29965 14.6179 7.65558 14.2256 7.0326 13.7871C6.4547 13.3772 6.0261 12.8327 5.60629 12.277C4.53831 10.8613 3.72445 9.30087 3.01071 7.6831C2.8696 7.36399 2.97382 7.18482 3.32572 7.15614C3.58217 7.13623 3.84097 7.14208 4.09918 7.14033C4.50904 7.13681 4.9189 7.13623 5.32876 7.13447C5.63088 7.13447 5.8323 7.26738 5.96696 7.54433C6.32569 8.29027 6.69534 9.03095 7.07592 9.76635C7.22966 10.0834 7.45064 10.3631 7.7235 10.5861C7.79157 10.6407 7.86785 10.6841 7.94951 10.7149C8.10994 10.7734 8.23348 10.7149 8.31663 10.5679C8.45305 10.3273 8.46359 10.0579 8.49228 9.79387C8.56925 9.18925 8.5467 8.57611 8.42553 7.97878C8.35176 7.63274 8.13629 7.45182 7.80313 7.37804C7.74951 7.36076 7.69773 7.3382 7.64856 7.31071C7.67204 7.25733 7.7013 7.20667 7.7358 7.15965C7.87269 7.00059 8.06263 6.89658 8.27037 6.86689C9.0643 6.74282 9.87259 6.74164 10.6669 6.86338C11.0598 6.92603 11.2026 7.05894 11.2401 7.51622C11.2694 7.87749 11.2401 8.24343 11.2342 8.60762C11.229 9.08657 11.2178 9.56552 11.2231 10.0445C11.2256 10.1872 11.2535 10.3284 11.3057 10.4614C11.414 10.7412 11.6295 10.7793 11.8578 10.5884C12.229 10.2781 12.4784 9.87467 12.7361 9.47594C13.1203 8.86894 13.4461 8.22688 13.7092 7.55838C13.7392 7.4813 13.7756 7.40687 13.8181 7.33589C13.8463 7.28517 13.8875 7.24293 13.9376 7.21358C13.9876 7.18423 14.0446 7.16884 14.1027 7.16902C14.9417 7.15906 15.7802 7.14442 16.6204 7.14501C16.82 7.14501 17.0302 7.18014 17.111 7.41844L17.1075 7.60991Z" fill="#267FB1"/>
</svg>

<svg width="21" height="21" fill="none" xmlns="http://www.w3.org/2000/svg"><path d="M10.5 0a10.5 10.5 0 100 21 10.5 10.5 0 000-21zm6.608 7.61c-.09.21-.164.428-.271.628-.351.665-.83 1.247-1.278 1.848-.23.309-.46.62-.666.946-.158.248-.118.488.074.711.094.108.195.208.293.31.38.38.775.747 1.136 1.146.312.344.636.694.71 1.186v.027c-.09.27-.22.378-.511.387-.636.02-1.273.013-1.907.05-.55.033-.988-.175-1.359-.553-.301-.303-.578-.632-.873-.942a2.18 2.18 0 00-.358-.301c-.22-.149-.379-.121-.56.075-.204.223-.26.503-.293.788-.017.142-.015.285-.025.427-.018.273-.153.436-.424.455a9.922 9.922 0 01-.953.015 5.465 5.465 0 01-.782-.065c-.761-.13-1.405-.522-2.028-.96-.578-.41-1.007-.955-1.427-1.511-1.068-1.416-1.882-2.976-2.595-4.594-.141-.319-.037-.498.315-.527.256-.02.515-.014.773-.016l1.23-.006c.302 0 .503.133.638.41.359.746.728 1.487 1.109 2.222.154.317.375.597.647.82a.828.828 0 00.227.129c.16.058.283 0 .367-.147.136-.24.147-.51.175-.774a5.583 5.583 0 00-.066-1.815c-.074-.346-.29-.527-.623-.601a.853.853 0 01-.154-.067.8.8 0 01.087-.151.867.867 0 01.534-.293 7.834 7.834 0 012.397-.004c.393.063.536.196.573.653.03.361 0 .727-.006 1.092-.005.479-.016.958-.01 1.436.002.143.03.284.082.417.108.28.324.318.552.127.371-.31.62-.713.878-1.112.384-.607.71-1.25.973-1.918.03-.077.067-.151.11-.222a.324.324 0 01.284-.167c.839-.01 1.677-.025 2.517-.024.2 0 .41.035.491.273l-.003.192z" fill="#267FB1"/></svg>
